X: 159
T:Rockbridge Blues
M:4/4
L:1/8
F:http://blackrosetheband.googlepages.com/ABCTUNES.ABC May 2009
C:Tuning = GDGD
S:Troublesome Creek String Band
K:GMix
c|"G"d2 fd dcc2|_B4 G4|"F"F3D FDFD|"G"_B4 G3 (d|c2)_B2 GDFD|G4 G4|"F"FD_BG GDF(G|"G"G4 G3 :|
(c|"G"d2 d2 fd d2|g4 g3(f|g2 ff dc_B2|G4 G3 d|f2 d fd fdd|g4 g3f|ggf2 dc_B| "D"d4 d4|
d2 d2 fd d2|"G"g4 g3(f|g2 ff dc_B2|G4 G4|F3D FDFD|_B4 G3 (d|"F"c2) _B2 GDFD|"G"G4 G4||

